X:812
T:Father John MacMillan of Barra 
C:Joe Buchanan's Scottish Tome - Page 332.0
I:332 0
R:Strathspey
Z:Carl Allison
L:1/8
M:2/4
K:A
A/>B/ | "A" c(B/<A/) A(c/<e/) | "D" f(e/<c/) "A" e>f | "A" e(c/<A/) "F#m" Af/>e/ | "A" c(B/<A/) "E" BA/>B/ |
"A" c(B/<A/) A(c/>e/) | "D" f(e/<c/) "A" e>f | "A" e(c/<A/) "Bm" Bc/>"E7"B/ | "A" A2 "D" A/<A/ :|
"A" c/>e/ | "D" fe/>e/ "A" e(f/>a/) | "D" f(e/<c/) "A" e>f | "A" ec/>A/ A/>A/f/>e/ | "A" c(B/<A/) "E" B(c/>e/) |
"D" fe/>e/ "A" e(f/>a/) | "D" f(e/>c/) "A" e>f | "A" e(c/"F#m ">A/) "Bm" Bc/>"E7"B/ | "A" A2 A/<A/ "E" c/>e/ |
"D" fe/>e/ "A" e(f/>a/) | "D" f(e/<c/) "A" e>f | "A" ec/>"F#m"A/ A/>A/f/>e/ | "A" cB/>A/ "E" BA/>B/ |
"A" cB/>A/ (c/<e/)(c/<A/) | "D" f(e/<c/) "A" e>f | "A" ec/>A/ "E" Bc/>B/ | "A" A2 A/<A/ c/>e/ |]
A/B/ | "A" (c/<A/)(c/<e/) cA/>c/ | "D" f(e/<c/) "A" e>f | "D" (a/>f/)(e/<f/) "A" cf/>e/ | "A" cB/<A/ "E" BA/>B/ |
"A" (c/<A/)(c/<e/) cA/>c/ | "D" f(e/<c/) "A" e>f | "A" e(c/>A/) Bc/>B/ | "A" A2 A/<A/ |
c/e/ | "D" fe/<f/ (a/>f/)(e/<f/) | "D" fA/>c/ "A" e>f | "D" fe/>f/ "A" (a/>f/)(e/<f/) | "A" c(B/>A/) "E" Bc/>e/ |
"D" fe/<f/ (a/>f/)(e/<f/) | "A" f(e/<c/) "A" e>f | "A" e(c/>A/) "E" Bc/>B/ | "A" A2 A/<A/ c/>e/ |
"D" fe/>f/ (a/>f/)(e/<f/) | "D" fA/>c/ "A" e>f | "D" fe/>f/ "A" e/>f/a/>e/ | "A" c/>d/e/>c/ "E" BA/>B/ |
"A" c(B/>A/) (c/<e/)(c/<A/) | "D" f(e/<c/) "A" e>f | "A" e(c/"F#m "<A/) "Bm" Bc/>"E7"B/ | "A" A2 A/<A/ |]

